.local/share/icons/Gruvbox-Plus-Dark/actions/16/media-repeat-playlist-amarok.svg

<svg xmlns="http://www.w3.org/2000/svg" width="16" height="16" viewBox="0 0 16 16">
 <defs>
  <style id="current-color-scheme" type="text/css">
   .ColorScheme-Text { color:#ebdbb2; } .ColorScheme-Highlight { color:#458588; }
  </style>
 </defs>
 <path style="fill:currentColor" class="ColorScheme-Text" d="M 5 2 L 5 4 L 2.9316406 4 C 1.8618406 4 1 4.9391187 1 6.1054688 L 1 11.894531 C 1 13.060831 1.8618906 14 2.9316406 14 L 13.068359 14 C 14.138159 14 15 13.060881 15 11.894531 L 15 6.1054688 C 15 4.9391687 14.138109 4 13.068359 4 L 11 4 L 11 6 L 12.998047 6 C 12.996047 6.009 13 6.0262987 13 6.1054688 L 13 11.894531 C 13 11.973631 12.996047 11.99113 12.998047 12 L 12 12 L 12 11 L 9 11 L 9 12 L 3.0039062 12 C 3.0049062 11.991 3 11.973701 3 11.894531 L 3 6.1054688 C 3 6.0262687 3.0049062 6.00887 3.0039062 6 L 5 6 L 5 8 L 9 5 L 5 2 z M 9 7 L 9 8 L 12 8 L 12 7 L 9 7 z M 9 9 L 9 10 L 12 10 L 12 9 L 9 9 z"/>
</svg>

<svg width="16" height="16" version="1.1" xmlns="http://www.w3.org/2000/svg">
  <defs>
    <style id="current-color-scheme" type="text/css">.ColorScheme-Text { color:#ebdbb2; } .ColorScheme-Highlight { color:#458588; }</style>
  </defs>
  <path class="ColorScheme-Text" d="m5 2v2h-2c-2 0-2 2-2 2v6c0 2 2 2 2 2h9.996s2.004-2e-6 2.004-2v-6c0-2-2-2-2-2h-2v2h1.996l0.0039 6h-1v-1h-3v1h-6v-6h2v2l4-3zm4 5v1h3v-1zm0 2v1h3v-1z" fill="currentColor"/>
</svg>
